2222.CUBE
#Created by: Adobe Photoshop Export Color Lookup Plugin
TITLE "宣传图1222.jpg"
#LUT size
LUT_3D_SIZE 16
#data domain
DOMAIN_MIN 0.0 0.0 0.0
DOMAIN_MAX 1.0 1.0 1.0
#LUT data points
0.000000 0.000000 0.000000
0.009552 0.017059 0.027039
0.051758 0.032776 0.028717
0.100952 0.045288 0.020355
0.153717 0.059021 0.011139
0.206787 0.071991 0.000580
0.252319 0.087250 0.000031
0.301056 0.102386 0.000031
0.349976 0.117798 0.000031
0.399933 0.133728 0.000031
0.448425 0.151703 0.000031
0.495331 0.170929 0.000031
0.539093 0.192017 0.000031
0.578552 0.216003 0.000031
0.614197 0.242737 0.000031
0.644257 0.272766 0.000031
0.015839 0.037567 0.061218
0.035492 0.054840 0.071198
0.093109 0.078156 0.066071
0.144989 0.085144 0.038208
0.197845 0.092468 0.016754
0.252197 0.100830 0.000793
0.296509 0.113464 0.000031
0.341003 0.127136 0.000031
0.387573 0.141144 0.000031
0.434296 0.156586 0.000031
0.478210 0.174469 0.000031
0.519623 0.194031 0.000031
0.557037 0.215790 0.000031
0.591156 0.239868 0.000031
0.620422 0.265076 0.000031
0.646027 0.287018 0.000031
0.038574 0.078979 0.108215
0.050934 0.089294 0.116394
0.091614 0.116821 0.124908
0.165863 0.134064 0.104675
0.218231 0.143890 0.077759
0.276642 0.144623 0.032013
0.328430 0.143036 0.002808
0.370911 0.152863 0.000031
0.418427 0.166840 0.000031
0.461823 0.183990 0.000031
0.501770 0.203156 0.000031
0.538605 0.223938 0.000031
0.571075 0.246216 0.000031
0.598969 0.268951 0.000031
0.623810 0.291107 0.000031
0.647797 0.305298 0.000031
0.057861 0.119141 0.161163
0.064758 0.122894 0.163849
0.094574 0.149597 0.178802
0.149567 0.180634 0.180786
0.238739 0.192413 0.150879
0.297821 0.198029 0.109161
0.353973 0.204590 0.068604
0.410614 0.205994 0.025513
0.449829 0.201508 0.000031
0.479950 0.212555 0.000031
0.515808 0.233521 0.000031
0.548004 0.255798 0.000031
0.576263 0.279083 0.000031
0.603638 0.301636 0.000031
0.629852 0.321411 0.000031
0.653137 0.326782 0.000031
0.076965 0.158600 0.216888
0.077911 0.153931 0.211914
0.098297 0.183197 0.236115
0.141541 0.212067 0.244263
0.205261 0.246460 0.239624
0.312012 0.252533 0.202393
0.378876 0.253326 0.143127
0.430206 0.263184 0.109680
0.480560 0.270355 0.064270
0.527313 0.272583 0.014648
0.533264 0.272369 0.000031
0.559082 0.289124 0.000031
0.591888 0.312561 0.000031
0.622467 0.334625 0.000031
0.649506 0.352783 0.000031
0.664124 0.350555 0.000031
0.093292 0.198975 0.272888
0.090973 0.185822 0.258484
0.111084 0.216888 0.288879
0.130707 0.244995 0.308472
0.188995 0.276489 0.310699
0.258423 0.312927 0.301941
0.388763 0.312958 0.252472
0.452545 0.315674 0.195679
0.505859 0.324615 0.156464
0.556030 0.335938 0.119690
0.595825 0.347107 0.085999
0.626740 0.346069 0.023376
0.631775 0.345428 0.000031
0.666016 0.368011 0.000031
0.698700 0.384338 0.000031
0.689240 0.375732 0.000031
0.107025 0.240936 0.332001
0.103882 0.223541 0.312225
0.125336 0.250397 0.336853
0.135712 0.279358 0.365417
0.167084 0.308777 0.378754
0.238770 0.342682 0.375732
0.311188 0.382721 0.360870
0.460876 0.376343 0.306396
0.525604 0.380524 0.250488
0.580719 0.390411 0.209290
0.623749 0.409119 0.193420
0.665588 0.423920 0.165131
0.703583 0.424194 0.101929
0.718201 0.409973 0.032501
0.733826 0.434387 0.075256
0.720886 0.405670 0.019653
0.121368 0.286163 0.392822
0.116211 0.264923 0.369598
0.134399 0.283203 0.385284
0.150055 0.315247 0.417023
0.158264 0.343567 0.442871
0.210510 0.373932 0.448547
0.293762 0.409210 0.441650
0.380371 0.452545 0.415588
0.529785 0.441650 0.359833
0.600372 0.447510 0.307648
0.648712 0.463196 0.280457
0.693604 0.484863 0.270599
0.736816 0.501343 0.248230
0.761475 0.502411 0.209442
0.759460 0.495117 0.193481
0.768219 0.514923 0.230988
0.138977 0.335815 0.452972
0.131897 0.312042 0.428497
0.138489 0.313995 0.429749
0.165100 0.353058 0.466675
0.171936 0.380951 0.497437
0.195251 0.409393 0.517151
0.268951 0.439941 0.516022
0.360291 0.475403 0.505585
0.456207 0.520020 0.469086
0.602142 0.506439 0.412933
0.670654 0.517548 0.377167
0.718719 0.536804 0.357086
0.763763 0.559875 0.348663
0.796539 0.578308 0.341492
0.790314 0.562866 0.313812
0.802979 0.589630 0.359619
0.157074 0.389252 0.511536
0.149506 0.363800 0.487488
0.148621 0.355377 0.480103
0.179413 0.393280 0.514709
0.189056 0.421814 0.546295
0.195099 0.448639 0.574707
0.249756 0.477081 0.582581
0.340088 0.507019 0.575745
0.434326 0.541870 0.564301
0.521240 0.586700 0.518799
0.672668 0.571259 0.467041
0.732483 0.588531 0.443939
0.783966 0.608826 0.425446
0.821747 0.634949 0.434875
0.834229 0.657501 0.474457
0.826813 0.642181 0.449615
0.176727 0.443665 0.566986
0.167877 0.418427 0.543793
0.164215 0.406708 0.533936
0.188202 0.433624 0.559113
0.207367 0.464874 0.590332
0.210876 0.491241 0.620911
0.226898 0.517761 0.643799
0.328857 0.545990 0.636383
0.420898 0.574951 0.630615
0.505890 0.607758 0.623291
0.591370 0.647400 0.568268
0.735718 0.638153 0.528229
0.792908 0.656281 0.496704
0.836304 0.680298 0.486237
0.860168 0.715302 0.550903
0.849243 0.687103 0.521912
0.197632 0.496979 0.620544
0.188477 0.473083 0.597626
0.184326 0.461456 0.587677
0.189301 0.465363 0.592255
0.223450 0.507324 0.632660
0.232239 0.534424 0.663116
0.237213 0.560394 0.691437
0.299957 0.586975 0.700439
0.412292 0.614655 0.690521
0.494659 0.642181 0.689026
0.574005 0.672485 0.684753
0.669128 0.702545 0.620575
0.800110 0.703217 0.585114
0.851471 0.721008 0.543732
0.880585 0.757172 0.604187
0.869476 0.726868 0.581482
0.218994 0.547852 0.674927
0.209717 0.526093 0.651978
0.205444 0.515228 0.641083
0.204376 0.512085 0.638550
0.230316 0.543762 0.670624
0.251953 0.575409 0.704010
0.258698 0.601929 0.734619
0.271820 0.628052 0.761322
0.383118 0.655090 0.754700
0.482788 0.682251 0.750061
0.558075 0.708496 0.752655
0.639648 0.736267 0.748535
0.748810 0.759674 0.677460
0.865051 0.766876 0.640076
0.900513 0.793610 0.656738
0.889008 0.763550 0.633850
0.241241 0.596069 0.727936
0.232513 0.576874 0.707214
0.228241 0.567230 0.696991
0.226990 0.564117 0.694000
0.227844 0.565735 0.696045
0.260620 0.608887 0.741150
0.280365 0.639008 0.773682
0.288025 0.666107 0.804749
0.313171 0.693054 0.828735
0.445251 0.721161 0.816498
0.537445 0.748383 0.816498
0.629730 0.777222 0.818481
0.740356 0.808899 0.811615
0.833832 0.826538 0.763672
0.918823 0.833313 0.733154
0.907501 0.798096 0.680389
0.263031 0.642883 0.777985
0.255524 0.626678 0.761108
0.251892 0.618652 0.752808
0.250885 0.616211 0.750458
0.251709 0.617798 0.752319
0.253967 0.622681 0.757446
0.282379 0.662384 0.799225
0.305176 0.696350 0.835358
0.320648 0.725769 0.863922
0.486511 0.775787 0.868744
0.639343 0.815826 0.864624
0.747345 0.847717 0.866364
0.822113 0.873901 0.871735
0.871490 0.893219 0.876373
0.914154 0.893158 0.849396
0.930420 0.839539 0.741608
0.439423 0.789642 0.891663
0.346497 0.751587 0.876343
0.329041 0.735321 0.867889
0.334717 0.740295 0.870789
0.363770 0.759491 0.879425
0.435089 0.785767 0.889984
0.547089 0.816040 0.893646
0.642883 0.844666 0.895752
0.701843 0.863342 0.898407
0.729004 0.871765 0.899475
0.773376 0.883118 0.898651
0.815796 0.894684 0.898926
0.851654 0.907074 0.902557
0.885773 0.920013 0.908417
0.922974 0.929504 0.910797
0.984070 0.958282 0.922302
0.001434 0.006317 0.012787
0.024292 0.023651 0.029633
0.064392 0.030243 0.024780
0.109650 0.036163 0.010223
0.147491 0.043182 0.000031
0.181854 0.053955 0.000031
0.227692 0.067993 0.000031
0.278442 0.083527 0.000031
0.330963 0.099762 0.000031
0.381531 0.116455 0.000031
0.429321 0.134796 0.000031
0.477295 0.154083 0.000031
0.524475 0.174835 0.000031
0.567566 0.198456 0.000031
0.606812 0.225922 0.000031
0.643463 0.261780 0.000031
0.018097 0.041138 0.065125
0.043060 0.060181 0.080902
0.089905 0.075195 0.071320
0.137054 0.069427 0.031921
0.186768 0.071045 0.007751
0.230957 0.081512 0.000031
0.273041 0.094849 0.000031
0.318420 0.108673 0.000031
0.364990 0.123291 0.000031
0.412415 0.139008 0.000031
0.459320 0.156647 0.000031
0.504181 0.175690 0.000031
0.546265 0.196838 0.000031
0.584198 0.220856 0.000031
0.618469 0.247955 0.000031
0.647827 0.276886 0.000031
0.035248 0.074036 0.098938
0.058319 0.098724 0.128296
0.107147 0.121002 0.128418
0.166565 0.126923 0.092407
0.226379 0.107605 0.022522
0.272644 0.105652 0.000031
0.311920 0.115997 0.000031
0.353027 0.127777 0.000031
0.397369 0.140411 0.000031
0.441040 0.155334 0.000031
0.483551 0.172394 0.000031
0.524170 0.191315 0.000031
0.561462 0.212646 0.000031
0.595734 0.236511 0.000031
0.625488 0.262909 0.000031
0.650940 0.287720 0.000031
0.052490 0.110840 0.142487
0.069458 0.134491 0.177338
0.088562 0.153046 0.191711
0.168243 0.184692 0.180725
0.245148 0.178955 0.120300
0.307251 0.167389 0.053619
0.351593 0.146149 0.000031
0.390930 0.153412 0.000031
0.433136 0.165070 0.000031
0.472717 0.179779 0.000031
0.510437 0.196533 0.000031
0.545929 0.215271 0.000031
0.578644 0.236298 0.000031
0.607300 0.259308 0.000031
0.632080 0.282532 0.000031
0.654144 0.302887 0.000031
0.068512 0.147583 0.194336
0.080963 0.165802 0.225006
0.094269 0.183960 0.245239
0.121429 0.212402 0.262726
0.221436 0.249268 0.239563
0.327393 0.232147 0.149872
0.384338 0.225464 0.084351
0.435944 0.204895 0.019196
0.461731 0.196381 0.000031
0.498260 0.211609 0.000031
0.532166 0.228516 0.000031
0.562744 0.246979 0.000031
0.589691 0.266937 0.000031
0.614166 0.287842 0.000031
0.637085 0.308350 0.000031
0.658905 0.321289 0.000031
0.085663 0.185516 0.247467
0.094635 0.202301 0.276825
0.101990 0.209778 0.286713
0.121490 0.243103 0.320496
0.160400 0.275024 0.332214
0.267792 0.315765 0.301483
0.405609 0.291504 0.193848
0.459656 0.285217 0.123627
0.513184 0.273895 0.043945
0.527344 0.257904 0.000031
0.543365 0.265625 0.000031
0.571564 0.284454 0.000031
0.598785 0.303467 0.000031
0.624176 0.322083 0.000031
0.648743 0.338684 0.000031
0.666931 0.341187 0.000031
0.099762 0.224792 0.302521
0.107635 0.243347 0.334839
0.109009 0.241791 0.335724
0.133270 0.272705 0.365356
0.144409 0.305817 0.398499
0.203033 0.339874 0.400116
0.318604 0.384491 0.360687
0.478210 0.356232 0.251038
0.537262 0.348358 0.171082
0.581268 0.345856 0.106903
0.598389 0.329285 0.027466
0.601746 0.323608 0.000031
0.630005 0.341919 0.000031
0.656403 0.358826 0.000031
0.681458 0.371002 0.000031
0.677063 0.361847 0.000031
0.112823 0.266388 0.360809
0.121979 0.288147 0.395050
0.122101 0.285370 0.394287
0.134064 0.297699 0.407074
0.158447 0.338470 0.447021
0.167175 0.370972 0.478271
0.257080 0.405853 0.467926
0.386139 0.453400 0.415771
0.551025 0.422729 0.308014
0.609741 0.418884 0.233368
0.650604 0.423370 0.187042
0.685242 0.410889 0.097504
0.691132 0.383728 0.000031
0.717499 0.401947 0.013763
0.726379 0.417816 0.044556
0.697296 0.381683 0.000031
0.128937 0.311798 0.420013
0.139587 0.337769 0.454956
0.139343 0.334930 0.453857
0.140533 0.333496 0.454315
0.171021 0.372894 0.491150
0.182343 0.406677 0.528046
0.210449 0.438385 0.550323
0.323639 0.472504 0.531860
0.458893 0.520355 0.469788
0.626190 0.490082 0.369110
0.679230 0.494232 0.310944
0.723053 0.503296 0.272369
0.754333 0.496735 0.207062
0.750061 0.473999 0.153717
0.756073 0.487274 0.178833
0.748383 0.469604 0.146362
0.146820 0.361816 0.478516
0.157593 0.390869 0.513123
0.157135 0.388367 0.511963
0.156677 0.385071 0.510742
0.172058 0.403503 0.528839
0.199799 0.445557 0.569611
0.205017 0.476593 0.605072
0.271912 0.507477 0.612061
0.402344 0.540009 0.588440
0.522736 0.586975 0.520447
0.692139 0.560333 0.437866
0.748810 0.569244 0.391113
0.792328 0.581177 0.355743
0.798340 0.580139 0.343018
0.810516 0.606140 0.387573
0.783630 0.547943 0.288635
0.165283 0.414734 0.535339
0.177246 0.445007 0.568298
0.176666 0.442932 0.567108
0.175934 0.439880 0.565613
0.177368 0.441345 0.568268
0.211365 0.483398 0.608215
0.224762 0.516907 0.644836
0.232544 0.546844 0.676208
0.359985 0.576904 0.663177
0.480621 0.607117 0.644012
0.592468 0.647766 0.569672
0.750824 0.630096 0.500061
0.808136 0.641998 0.454987
0.836304 0.664093 0.479767
0.850006 0.688751 0.524170
0.812958 0.611572 0.397095
0.185883 0.468353 0.589905
0.198059 0.498138 0.621643
0.197510 0.496368 0.620392
0.196838 0.493927 0.618744
0.197113 0.494019 0.619720
0.207825 0.508362 0.634521
0.242676 0.554962 0.681793
0.251190 0.586426 0.718109
0.293701 0.616058 0.738678
0.443909 0.645355 0.717560
0.549133 0.672821 0.704437
0.669556 0.703064 0.621857
0.812927 0.696289 0.554657
0.855835 0.716156 0.535828
0.877991 0.745239 0.602997
0.839447 0.667786 0.491577
0.207001 0.521210 0.645294
0.219421 0.548798 0.675995
0.218933 0.547455 0.674774
0.218262 0.545563 0.673096
0.218628 0.545898 0.673889
0.220276 0.549072 0.677826
0.245880 0.583405 0.713623
0.271667 0.621857 0.754852
0.279572 0.653198 0.790558
0.375214 0.683502 0.794067
0.512268 0.712280 0.778351
0.612549 0.737549 0.768066
0.749146 0.760254 0.678925
0.872620 0.761444 0.612030
0.899780 0.787872 0.658417
0.865082 0.718323 0.569000
0.230042 0.572296 0.701416
0.241638 0.596924 0.728912
0.241241 0.596008 0.727997
0.240784 0.594788 0.726868
0.241272 0.595581 0.727936
0.242889 0.598846 0.731659
0.245758 0.604767 0.738251
0.275635 0.646240 0.782104
0.301178 0.684204 0.822876
0.309448 0.716553 0.857697
0.453247 0.751099 0.850922
0.615448 0.787628 0.838470
0.719818 0.811890 0.828125
0.834351 0.826904 0.764557
0.921143 0.827850 0.715485
0.890900 0.766724 0.638763
0.253571 0.622681 0.756653
0.263367 0.643646 0.778717
0.263184 0.643188 0.778290
0.263062 0.642822 0.778015
0.263885 0.644470 0.779846
0.265717 0.648285 0.783844
0.268677 0.654327 0.790161
0.274231 0.664612 0.800812
0.340881 0.742828 0.870148
0.516510 0.798462 0.883331
0.665527 0.838776 0.882416
0.769226 0.867828 0.882812
0.837921 0.890411 0.887238
0.880707 0.903351 0.888000
0.914490 0.893402 0.849823
0.918518 0.817993 0.710205
0.327576 0.733765 0.866028
0.450378 0.792603 0.892487
0.464111 0.795837 0.893341
0.491882 0.802948 0.895447
0.533386 0.813873 0.895416
0.564636 0.822266 0.894867
0.594757 0.830750 0.894958
0.623749 0.839478 0.895721
0.651794 0.848053 0.896606
0.681183 0.857056 0.897705
0.712219 0.866699 0.898956
0.749023 0.877502 0.899750
0.804626 0.891876 0.899017
0.853729 0.908203 0.903412
0.905518 0.926544 0.910797
0.984253 0.958527 0.922821
0.003265 0.015350 0.031372
0.044525 0.033112 0.038666
0.081879 0.036835 0.027771
0.120941 0.044342 0.019531
0.169434 0.050598 0.004944
0.207764 0.060333 0.000031
0.243683 0.071075 0.000031
0.279358 0.079163 0.000031
0.308899 0.083984 0.000031
0.350922 0.096008 0.000031
0.407074 0.114746 0.000031
0.460724 0.135864 0.000031
0.512207 0.157745 0.000031
0.562286 0.181335 0.000031
0.605988 0.210052 0.000031
0.645172 0.253357 0.000031
0.027405 0.054840 0.088013
0.040131 0.067139 0.101013
0.104034 0.076050 0.068451
0.153046 0.048798 0.003326
0.181488 0.056610 0.000031
0.221802 0.070068 0.000031
0.265869 0.085022 0.000031
0.312897 0.099884 0.000031
0.361023 0.114990 0.000031
0.407684 0.131531 0.000031
0.454407 0.149658 0.000031
0.500824 0.168823 0.000031
0.544037 0.190033 0.000031
0.583740 0.214050 0.000031
0.619263 0.241547 0.000031
0.649872 0.274292 0.000031
0.040955 0.083740 0.114075
0.057617 0.099548 0.138336
0.105286 0.124786 0.141449
0.163269 0.138824 0.128204
0.215302 0.128326 0.072205
0.271667 0.113922 0.017975
0.309326 0.110992 0.000031
0.346375 0.120239 0.000031
0.390198 0.133209 0.000031
0.434204 0.148438 0.000031
0.477631 0.165588 0.000031
0.519623 0.184448 0.000031
0.558533 0.205780 0.000031
0.593964 0.230042 0.000031
0.625763 0.257446 0.000031
0.654175 0.284119 0.000031
0.054474 0.115173 0.148651
0.063019 0.126740 0.169983
0.105316 0.162476 0.203796
0.177368 0.186707 0.188232
0.242676 0.187439 0.142303
0.310791 0.168793 0.068481
0.356110 0.143280 0.003906
0.387787 0.144287 0.000031
0.428009 0.155334 0.000031
0.467224 0.169739 0.000031
0.505737 0.186005 0.000031
0.542236 0.204742 0.000031
0.576263 0.226135 0.000031
0.606842 0.250153 0.000031
0.633545 0.275177 0.000031
0.657959 0.298065 0.000031
0.067902 0.148834 0.192841
0.076355 0.161377 0.216553
0.104828 0.199402 0.261566
0.128571 0.217926 0.271332
0.241089 0.250275 0.238098
0.323151 0.237518 0.165222
0.389648 0.225677 0.098389
0.439667 0.193878 0.016174
0.462555 0.186096 0.000031
0.498352 0.199768 0.000031
0.532135 0.215912 0.000031
0.563629 0.234009 0.000031
0.591980 0.254272 0.000031
0.616852 0.275940 0.000031
0.639038 0.298706 0.000031
0.661499 0.315460 0.000031
0.083008 0.184357 0.241211
0.092255 0.200836 0.270599
0.116882 0.235077 0.311768
0.124939 0.252045 0.330353
0.161743 0.278351 0.340027
0.295868 0.316589 0.294098
0.406006 0.290497 0.191559
0.460541 0.284027 0.127014
0.516510 0.260925 0.039673
0.518311 0.236847 0.000031
0.547913 0.252869 0.000031
0.575256 0.270416 0.000031
0.600037 0.289185 0.000031
0.623993 0.308716 0.000031
0.647430 0.327576 0.000031
0.667847 0.335175 0.000031
0.096710 0.221497 0.291901
0.105621 0.241669 0.328186
0.125336 0.267029 0.358154
0.137543 0.285278 0.378021
0.146057 0.311218 0.405273
0.200348 0.342072 0.408569
0.346893 0.385559 0.351227
0.481720 0.351837 0.238983
0.536377 0.345215 0.165222
0.579071 0.334503 0.084930
0.578705 0.305023 0.000031
0.590973 0.312225 0.000031
0.617310 0.329193 0.000031
0.642395 0.345825 0.000031
0.667328 0.360229 0.000031
0.675476 0.354950 0.000031
0.109009 0.260681 0.346893
0.119904 0.285583 0.388641
0.128540 0.298065 0.405121
0.143097 0.315704 0.423615
0.160706 0.345306 0.454071
0.168030 0.374451 0.484100
0.250366 0.407043 0.477051
0.407410 0.452393 0.404846
0.555695 0.417999 0.293457
0.609070 0.414642 0.224579
0.648254 0.411987 0.163177
0.660461 0.375549 0.038239
0.670807 0.371552 0.000031
0.700165 0.385010 0.000031
0.716797 0.398743 0.007935
0.688416 0.374908 0.000031
0.124054 0.302979 0.404297
0.137482 0.334167 0.448151
0.141052 0.341522 0.458893
0.146973 0.348419 0.467499
0.172577 0.380585 0.498413
0.184509 0.411285 0.532288
0.200409 0.440979 0.558990
0.314941 0.473419 0.540131
0.472046 0.516998 0.457794
0.630859 0.486145 0.355865
0.680023 0.490112 0.300873
0.721497 0.492371 0.248474
0.740021 0.458557 0.130219
0.740997 0.453613 0.113617
0.745850 0.464417 0.134705
0.748138 0.469452 0.145630
0.141266 0.349670 0.460785
0.155548 0.386475 0.506439
0.158478 0.393799 0.515900
0.159393 0.395203 0.519012
0.172760 0.411346 0.535431
0.201202 0.450409 0.573273
0.206757 0.480164 0.607910
0.254486 0.509827 0.622101
0.394867 0.541016 0.595581
0.537384 0.581085 0.514313
0.698303 0.557159 0.429291
0.750946 0.565887 0.381134
0.789917 0.572998 0.339355
0.784790 0.550964 0.293060
0.804413 0.593170 0.365387
0.781311 0.542938 0.280060
0.159210 0.400146 0.517181
0.175140 0.440277 0.562317
0.178162 0.447510 0.570618
0.179016 0.449066 0.573212
0.179840 0.450500 0.575836
0.209717 0.486908 0.611084
0.228180 0.520325 0.646667
0.232666 0.549744 0.679443
0.342102 0.579102 0.673553
0.474182 0.608246 0.650146
0.608795 0.640747 0.567505
0.756104 0.627960 0.491547
0.813690 0.639496 0.451721
0.834503 0.658264 0.475128
0.845276 0.679657 0.510071
0.809906 0.605042 0.386047
0.179260 0.452667 0.572083
0.196014 0.493530 0.616272
0.198822 0.500183 0.623718
0.199677 0.501801 0.625946
0.200531 0.503448 0.628296
0.206390 0.511902 0.637543
0.241180 0.557037 0.683716
0.254700 0.588806 0.719452
0.274292 0.618256 0.747925
0.428375 0.647522 0.726807
0.543152 0.674164 0.710175
0.682617 0.698669 0.619232
0.817017 0.694763 0.546783
0.857880 0.716370 0.541473
0.876465 0.740265 0.600128
0.836060 0.660980 0.480621
0.200226 0.505615 0.627625
0.217468 0.544739 0.671265
0.220215 0.550537 0.677826
0.221069 0.552063 0.679840
0.221954 0.553711 0.681976
0.223663 0.557159 0.686066
0.240875 0.580811 0.711182
0.270996 0.623047 0.755920
0.283508 0.654510 0.791412
0.341034 0.684753 0.807892
0.499268 0.714233 0.786194
0.606140 0.738861 0.773438
0.755219 0.759216 0.677063
0.874390 0.760742 0.606934
0.899811 0.785461 0.659393
0.861755 0.712006 0.559509
0.223145 0.557922 0.684967
0.240021 0.593536 0.725067
0.242340 0.598480 0.730499
0.243134 0.600006 0.732361
0.244110 0.601959 0.734589
0.245850 0.605469 0.738617
0.248413 0.610901 0.744659
0.272522 0.644714 0.780518
0.300049 0.684753 0.823151
0.311737 0.717224 0.857544
0.433929 0.752960 0.858368
0.615845 0.791595 0.843262
0.722595 0.815033 0.831757
0.836517 0.827271 0.765564
0.921387 0.827026 0.716431
0.888855 0.761993 0.633240
0.247803 0.610565 0.743317
0.262177 0.641113 0.776031
0.264008 0.644897 0.780121
0.264771 0.646576 0.781769
0.265869 0.648865 0.784241
0.267761 0.652771 0.788300
0.270752 0.658783 0.794586
0.292480 0.690308 0.827545
0.364014 0.753845 0.874176
0.538910 0.807037 0.885223
0.679291 0.845123 0.885101
0.778839 0.873260 0.885925
0.843658 0.894958 0.890808
0.884216 0.906372 0.890717
0.915222 0.893799 0.850555
0.916962 0.814941 0.706909
0.276703 0.671356 0.807281
0.438538 0.789124 0.891418
0.472626 0.798096 0.893982
0.498566 0.805054 0.896240
0.527283 0.812469 0.895813
0.557983 0.820679 0.895142
0.588623 0.829224 0.895142
0.618683 0.838165 0.895752
0.647888 0.847015 0.896667
0.677124 0.855988 0.897736
0.707916 0.865570 0.898987
0.740448 0.875763 0.900391
0.793213 0.889587 0.899902
0.847137 0.906433 0.903046
0.902252 0.925873 0.911377
0.984406 0.959015 0.923676
0.005676 0.026093 0.052979
0.063049 0.049438 0.056122
0.107574 0.047638 0.033417
0.144836 0.052338 0.021881
0.188568 0.058624 0.009827
0.232330 0.066498 0.000031
0.268585 0.078094 0.000031
0.307983 0.088928 0.000031
0.349152 0.098022 0.000031
0.385040 0.106567 0.000031
0.412903 0.113434 0.000031
0.426300 0.116150 0.000031
0.488647 0.138062 0.000031
0.551056 0.165253 0.000031
0.606049 0.195068 0.000031
0.649811 0.245178 0.000031
0.033508 0.068420 0.112396
0.041046 0.075348 0.118805
0.116272 0.086975 0.084564
0.168671 0.078033 0.043152
0.202026 0.059143 0.000031
0.227905 0.065857 0.000031
0.257019 0.072174 0.000031
0.301147 0.084290 0.000031
0.352173 0.100861 0.000031
0.403107 0.119843 0.000031
0.451569 0.139618 0.000031
0.498871 0.160156 0.000031
0.544586 0.181854 0.000031
0.585449 0.206940 0.000031
0.621979 0.235870 0.000031
0.654266 0.272552 0.000031
0.049500 0.095703 0.141296
0.060791 0.104187 0.157715
0.098267 0.130280 0.169891
0.167358 0.144531 0.150543
0.241089 0.114441 0.046387
0.277283 0.093475 0.002502
0.307220 0.098206 0.000031
0.348694 0.111176 0.000031
0.391113 0.125336 0.000031
0.433350 0.141602 0.000031
0.477417 0.159088 0.000031
0.519836 0.178101 0.000031
0.560028 0.199493 0.000031
0.596375 0.224060 0.000031
0.629608 0.252167 0.000031
0.658661 0.282990 0.000031
0.060699 0.125275 0.169952
0.071381 0.133209 0.189301
0.105835 0.164429 0.216614
0.170074 0.189911 0.207245
0.235260 0.202393 0.191620
0.300262 0.196472 0.142365
0.357422 0.176025 0.059967
0.407013 0.164642 0.016235
0.437347 0.157288 0.000031
0.465515 0.164398 0.000031
0.504547 0.180817 0.000031
0.541687 0.199493 0.000031
0.576385 0.220947 0.000031
0.608215 0.245636 0.000031
0.635986 0.272339 0.000031
0.663239 0.296692 0.000031
0.072510 0.156555 0.206543
0.077789 0.162445 0.219727
0.101227 0.193054 0.259918
0.162689 0.228088 0.277466
0.242737 0.252502 0.256531
0.317505 0.251251 0.202332
0.391266 0.239410 0.143372
0.449402 0.212189 0.049408
0.482391 0.195282 0.005432
0.502075 0.194702 0.000031
0.532806 0.208374 0.000031
0.564636 0.227051 0.000031
0.593781 0.247803 0.000031
0.619812 0.270569 0.000031
0.642029 0.294769 0.000031
0.667023 0.314270 0.000031
0.085022 0.189972 0.248535
0.091095 0.201172 0.268005
0.107422 0.221527 0.296906
0.138580 0.265076 0.346069
0.179474 0.284149 0.348724
0.308075 0.317902 0.306488
0.399841 0.301483 0.220703
0.463715 0.294556 0.163635
0.524536 0.267548 0.065979
0.538513 0.242859 0.001648
0.553711 0.245361 0.000031
0.579712 0.262360 0.000031
0.603821 0.281647 0.000031
0.626373 0.302307 0.000031
0.649109 0.323181 0.000031
0.672180 0.334381 0.000031
0.096985 0.225464 0.294556
0.103790 0.241241 0.322357
0.111755 0.252289 0.341919
0.144653 0.304138 0.400238
0.150665 0.321075 0.416870
0.212646 0.346375 0.415131
0.375488 0.376801 0.345886
0.477997 0.358063 0.255341
0.534271 0.353241 0.188873
0.580261 0.339752 0.105072
0.587189 0.306335 0.001404
0.591217 0.305023 0.000031
0.616028 0.322083 0.000031
0.640259 0.339294 0.000031
0.664368 0.355865 0.000031
0.675140 0.353119 0.000031
0.108490 0.262939 0.345795
0.117676 0.283752 0.381104
