2222.CUBE
#Created by: Adobe Photoshop Export Color Lookup Plugin
TITLE "宣传图1222.jpg"
#LUT size
LUT_3D_SIZE 6
#data domain
DOMAIN_MIN 0.0 0.0 0.0
DOMAIN_MAX 1.0 1.0 1.0
#LUT data points
0.000000 0.000000 0.000000
0.100952 0.045288 0.020355
0.252319 0.087250 0.000031
0.399933 0.133728 0.000031
0.539093 0.192017 0.000031
0.644257 0.272766 0.000031
0.057861 0.119141 0.161163
0.149567 0.180634 0.180786
0.353973 0.204590 0.068604
0.479950 0.212555 0.000031
0.576263 0.279083 0.000031
0.653137 0.326782 0.000031
0.107025 0.240936 0.332001
0.135712 0.279358 0.365417
0.311188 0.382721 0.360870
0.580719 0.390411 0.209290
0.703583 0.424194 0.101929
0.720886 0.405670 0.019653
0.157074 0.389252 0.511536
0.179413 0.393280 0.514709
0.249756 0.477081 0.582581
0.521240 0.586700 0.518799
0.783966 0.608826 0.425446
0.826813 0.642181 0.449615
0.218994 0.547852 0.674927
0.204376 0.512085 0.638550
0.258698 0.601929 0.734619
0.482788 0.682251 0.750061
0.748810 0.759674 0.677460
0.889008 0.763550 0.633850
0.439423 0.789642 0.891663
0.334717 0.740295 0.870789
0.547089 0.816040 0.893646
0.729004 0.871765 0.899475
0.851654 0.907074 0.902557
0.984070 0.958282 0.922302
0.005676 0.026093 0.052979
0.144836 0.052338 0.021881
0.268585 0.078094 0.000031
0.385040 0.106567 0.000031
0.488647 0.138062 0.000031
0.649811 0.245178 0.000031
0.060699 0.125275 0.169952
0.170074 0.189911 0.207245
0.357422 0.176025 0.059967
0.465515 0.164398 0.000031
0.576385 0.220947 0.000031
0.663239 0.296692 0.000031
0.096985 0.225464 0.294556
0.144653 0.304138 0.400238
0.375488 0.376801 0.345886
0.580261 0.339752 0.105072
0.616028 0.322083 0.000031
0.675140 0.353119 0.000031
0.139313 0.347443 0.454437
0.179138 0.420807 0.541412
0.208710 0.487274 0.614532
0.564850 0.570587 0.508789
0.789734 0.572906 0.339630
0.789185 0.559723 0.308960
0.196777 0.498016 0.618469
0.221497 0.553436 0.680969
0.255157 0.600372 0.731262
0.350281 0.688171 0.808807
0.769165 0.756653 0.669891
0.863983 0.716156 0.565826
0.275635 0.669189 0.805023
0.501556 0.806091 0.896362
0.592438 0.830658 0.895477
0.682922 0.858063 0.898224
0.792236 0.890442 0.901123
0.984619 0.959717 0.924927
0.026276 0.073059 0.133392
0.221771 0.112671 0.075867
0.351837 0.099884 0.000031
0.462860 0.130005 0.000031
0.573456 0.159607 0.000031
0.671936 0.221375 0.001190
0.085510 0.156036 0.242920
0.139557 0.208130 0.293243
0.416168 0.193542 0.089813
0.461670 0.132263 0.000031
0.597687 0.199799 0.000031
0.684814 0.295532 0.001099
0.110779 0.253082 0.348785
0.153564 0.302216 0.422028
0.365723 0.392517 0.416840
0.591949 0.397034 0.324554
0.672333 0.398743 0.117615
0.751099 0.472626 0.157715
0.146210 0.368774 0.475861
0.160156 0.401733 0.520142
0.332581 0.522186 0.621613
0.612396 0.574066 0.524353
0.785034 0.600677 0.416473
0.824036 0.636108 0.439728
0.197876 0.503693 0.622162
0.221344 0.554291 0.680695
0.280212 0.657257 0.794312
0.487976 0.708984 0.784454
0.808014 0.758636 0.679688
0.882965 0.751404 0.617950
0.314789 0.721985 0.857697
0.516571 0.811157 0.897522
0.624725 0.841522 0.897461
0.723969 0.872162 0.901062
0.817932 0.902374 0.906555
0.986267 0.963959 0.932739
0.056915 0.128296 0.218689
0.297913 0.179291 0.151306
0.445221 0.164154 0.058014
0.540833 0.153717 0.015656
0.633331 0.182678 0.036163
0.728851 0.280579 0.082245
0.102142 0.192383 0.304230
0.128479 0.230957 0.358276
0.429382 0.256195 0.218903
0.586487 0.205963 0.069611
0.638763 0.177277 0.000031
0.754425 0.370148 0.125610
0.136292 0.288635 0.426880
0.170013 0.319550 0.489227
0.346893 0.416016 0.506348
0.643646 0.392548 0.354584
0.728912 0.377167 0.128754
0.787170 0.553375 0.314758
0.164673 0.411102 0.534271
0.181152 0.429993 0.562897
0.338074 0.537201 0.660919
0.617249 0.599060 0.596252
0.785187 0.609131 0.563843
0.854218 0.696594 0.537109
0.210663 0.533752 0.655151
0.226166 0.565552 0.692322
0.284729 0.657501 0.794495
0.635620 0.742828 0.780884
0.824493 0.774811 0.717041
0.907196 0.795013 0.682770
0.433990 0.787445 0.890991
0.530029 0.816284 0.898834
0.657166 0.853241 0.900269
0.777649 0.890930 0.905304
0.864929 0.924316 0.917725
0.988983 0.971802 0.946564
0.085510 0.183746 0.307281
0.373505 0.232300 0.220978
0.503357 0.246094 0.193176
0.625092 0.231781 0.151550
0.715546 0.185242 0.085510
0.783203 0.321472 0.213593
0.116455 0.233765 0.379425
0.129700 0.255035 0.411530
0.465576 0.293762 0.289276
0.633087 0.297394 0.264008
0.744904 0.191864 0.091980
0.791229 0.404083 0.279205
0.162476 0.341125 0.518860
0.188110 0.349121 0.547119
0.328735 0.439911 0.587952
0.651093 0.423370 0.450775
0.816284 0.383301 0.323883
0.833496 0.559814 0.451019
0.191040 0.465820 0.613495
0.229645 0.491608 0.665222
0.352203 0.561157 0.738190
0.617920 0.616425 0.718170
0.781769 0.621368 0.672760
0.880035 0.720673 0.606537
0.230774 0.573456 0.703094
0.235168 0.581238 0.713470
0.295532 0.685150 0.829681
0.687317 0.766205 0.803284
0.833893 0.796600 0.766693
0.932678 0.842346 0.754639
0.438049 0.788940 0.891693
0.517456 0.815125 0.900208
0.663422 0.857910 0.903198
0.811371 0.904938 0.910034
0.913330 0.947876 0.931885
0.993286 0.983673 0.967743
0.114014 0.238403 0.394440
0.302155 0.314240 0.403717
0.489594 0.302643 0.311981
0.594727 0.315308 0.317139
0.699738 0.308472 0.333160
0.835541 0.346283 0.411865
0.104309 0.233032 0.394135
0.137390 0.284760 0.469940
0.345276 0.396820 0.534576
0.579102 0.370605 0.405701
0.675446 0.365204 0.416443
0.836212 0.387085 0.460907
0.161774 0.318848 0.511780
0.218353 0.365021 0.548859
0.311981 0.460449 0.661469
0.646027 0.488831 0.577240
0.725006 0.472626 0.562408
0.860443 0.490448 0.559265
0.207733 0.454590 0.677612
0.231537 0.465271 0.737183
0.403534 0.563690 0.763580
0.601318 0.641510 0.803528
0.820557 0.638031 0.697113
0.921509 0.649597 0.670990
0.247253 0.579956 0.741791
0.279938 0.601379 0.791290
0.444946 0.681061 0.841644
0.672577 0.753479 0.850555
0.852020 0.805725 0.877594
0.948944 0.843750 0.818726
0.730774 0.875488 0.902496
0.749481 0.881592 0.903534
0.800934 0.898712 0.906921
0.869263 0.928192 0.920197
0.946381 0.958740 0.936707
1.000000 1.000000 1.000000
